client/src/img/leave.svg

<svg width="512" height="512" fill="none" xmlns="http://www.w3.org/2000/svg"><path d="M256 21.333c122.411 0 222.805 93.739 233.6 213.334H298.667v-64a21.368 21.368 0 00-13.163-19.712 21.33 21.33 0 00-23.253 4.629l-85.334 85.333c-8.341 8.342-8.341 21.824 0 30.166l85.334 85.333a21.33 21.33 0 0023.253 4.629 21.368 21.368 0 0013.163-19.712v-64H489.6C478.805 396.928 378.411 490.667 256 490.667 126.4 490.667 21.333 385.6 21.333 256 21.333 126.4 126.4 21.333 256 21.333z" fill="#FF485A"/></svg>

<svg width="512" height="512" viewBox="0 0 512 512" fill="none" xmlns="http://www.w3.org/2000/svg">
<path d="M256 21.3333C378.411 21.3333 478.805 115.072 489.6 234.667H298.667V170.667C298.667 162.048 293.461 154.261 285.504 150.955C277.525 147.648 268.352 149.483 262.251 155.584L176.917 240.917C168.576 249.259 168.576 262.741 176.917 271.083L262.251 356.416C268.352 362.517 277.525 364.352 285.504 361.045C293.461 357.739 298.667 349.952 298.667 341.333V277.333H489.6C478.805 396.928 378.411 490.667 256 490.667C126.4 490.667 21.3333 385.6 21.3333 256C21.3333 126.4 126.4 21.3333 256 21.3333Z" fill="#FF485A"/>
</svg>
